X: 25
T: Praeludia organi op. 5 – Allegro
C: Franciszek Walczyński
%%abc-version 2.0
%%abcx-abcm2ps-target-version 5.9.1 (29 Sep 2008)
%%abc-creator hum2abc beta
%%abcx-conversion-date 2021/10/04 07:38:40
%%abc-edited-by Andrzej Borzym
%%abc-edited-by Krzysztof Stępień
%%abcx-initial-encoding-date 2021-07-26
%%humdrum-veritas 2483429276
%%humdrum-veritas-data 3314587214
%%linebreak <none>
%%barnumbers 0
L: 1/4
M: C|
N: Derived from pl-kozmzk--mzk-m-159--014_walczynski-franciszek--praeludia-organi-op-5-allegro.krn
Q: "14. Allegro."
%%staves {1 2}
V: 1 clef=treble
V: 2 clef=bass
K: F#
[V:1] FAGC & FAGC | 
[V:2] F,A,G,C, & F,A,G,C, | 
[V:1] FAc2 & FAc2 | 
[V:2] F,A,C2 & F,A,C2 | 
[V:1] dBcA & D2GF- | 
[V:2] A,B,G,A, & ^^F,G,E,^F, | 
[V:1] G2!fermata!A2 & FEF2 | 
[V:2] DCC2 & B,,C,!fermata!F,,2 | 
[V:1] FA^^GE & z4 | 
[V:2] F,A,^^G,E, & z4 | 
[V:1] Ace2 & z4 | 
[V:2] A,CE2 & z4 | 
[V:1] dc^BA & A2^^GA | 
[V:2] FEDC & D,E,-E,F, | 
[V:1] ^B^^G!fermata!A2 & FE/D/C2 | 
[V:2] DB,A,2 & D,E,!fermata!A,,2 | 
[V:1] z4 & z4 | 
[V:2] z4 & B,,A,,G,,F,, | 
[V:1] !fermata!z4 & z4 | 
[V:2] z4 & D,^B,,!fermata!C,2 | 
[V:1] FAGC & A,2B,2 | 
[V:2] C,3D,/E,/ & F,,4- | 
[V:1] FAc2 & A,C=E2 | 
[V:2] F,4- & F,,2A,,2 | 
[V:1] dBcA & D2^EF- | 
[V:2] F,G,2F, & B,,G,,C,D, | 
[V:1] G2!fermata!F2 & FEF2- | 
[V:2] G,C/B,/A,2 & B,,C,/^^C,/!fermata!D,2 | 
[V:1] G4 & F2E2 | 
[V:2] D=DCB,- & B,,2C,2 | 
[V:1] !fermata!F4 & C4 |]  
[V:2] B,2A,2 & !fermata!F,,4 |]  


